X:208
T:Baron Manchausen's Quadrilles No.3. Le4.208
M:6/8
L:1/8
Q:3/8=90
N:* f/ added by transcriber, is e/f/e/^d/e/ in Mss
B:L.Leadley MS#4 c1850
Z:Village Music Project 2016 Steve Mansfield
K:A
{F}E^DE Ace | C3 C3 | (ed)B (Bf)e | edB G3 |
{F}E^DE Ace | C3 C3 | edB GFE | EA2 A2z ||
{g}aga b2c' | e6 | (f3 a2)(^d | e6) |
e=dB f2e | ecA a2g | (gfe) (edc) | A3 A2z ||
c3 {d}c^Bc | (g3 c2)z | c3 e2A | {A}d3 d2z |
e/f/e/^d/e/"*"f/ .ab.c' | (e'2d') (d'2b) | c'3 {c'}bac' | a3- a2z ||
f3 c^Bc | (g2a) f2z | b3 f^ef | (c'2d') b2z |
B^AB =c2!>!A | AGA ^c2f | c3 d2c | A2z =e2 |]

